X: 31881
T: Pea In The F-hole
R: jig
M: 6/8
K: Amajor
M:6/8
A2 E BcG|A2 G AEC|D2 c d2 c|B2 E BcB|
A2 E BcG|A3 ABc|dec B2 A|B2 c BAE|
A2 E BcG|A3 ABc|deB- B2 c|d2 e BAG|
A2 a g2 a|f2 e- eAc|d2 e dcA|B3 BAG|
F2 D FGA|BGE- EFE|D2 c d2 c|BcA BGE|
F2 D FGA|BGE- EFE|D2 c d2 c|BEG A2 G|
F2 F- FGA|BGE- EFE|D2 c d2 c|B2 c BGE|
F2 D FGA|BGE- EFE|D2 c d2 c|BEG A3||

